!!!COM: Palestrina, Giovanni Perluigi da
!!!OPR: Missa Dum complerentur
!!!OMD: Kyrie
!!!OTL: Christe
**kern	**kern	**kern	**kern
*Itenor	*Icalto	*Icalto	*Icant
!Tenor	!Altus 2	!Altus 1	!Cantus
*clefGv2	*clefG2	*clefG2	*clefG2
*k[b-]	*k[b-]	*k[b-]	*k[b-]
*F:ion	*F:ion	*F:ion	*F:ion
*M4/2	*M4/2	*M4/2	*M4/2
=31	=31	=31	=31
0r	1c	0r	0r
.	1c	.	.
=32	=32	=32	=32
0r	1.f	0r	1cc
.	.	.	1cc
.	2e	.	.
=33	=33	=33	=33
0r	4d	0r	1.ff
.	4e	.	.
.	4f	.	.
.	4g	.	.
.	4a	.	.
.	4b-	.	.
.	[2cc	.	2ee
=34	=34	=34	=34
1G	2cc]	0r	0dd
.	4b-	.	.
.	4a	.	.
1G	4b-	.	.
.	4a	.	.
.	4g	.	.
.	4f	.	.
=35	=35	=35	=35
1.c	2.e	1g	1cc
.	4d	.	.
.	4e	1g	1r
.	4f	.	.
2B-	2g	.	.
=36	=36	=36	=36
4A	2f	1.cc	0r
4B-	.	.	.
4c	2e	.	.
4d	.	.	.
4e	1g	.	.
4f	.	.	.
[2g	.	2b-	.
=37	=37	=37	=37
4g]	2d	1a	0r
4f	.	.	.
1f	2f	.	.
.	1c	2.g	.
4e	.	.	.
4d	.	4f	.
=38	=38	=38	=38
2e	2r	2g	1cc
1f	4f	1a	.
.	4g	.	.
.	4a	.	1cc
.	4b-	.	.
2e	[2cc	2g	.
=39	=39	=39	=39
1d	2cc]	2.f	1.ff
.	2b	.	.
.	.	4g	.
1c	1cc	4a	.
.	.	4b	.
.	.	[2cc	2ee
=40	=40	=40	=40
0r	1g	2cc]	1dd
.	.	2b	.
.	2.a	1cc	2cc
.	.	.	2f
.	8g	.	.
.	8f	.	.
=41	=41	=41	=41
2r	2e	2.cc	2g
2.f	2f	.	2a
.	.	4a	.
.	2d	2b-	2f
4d	.	.	.
2e	2c	4cc	2g
.	.	4b-	.
=42	=42	=42	=42
4f	2r	4a	1a
4e	.	4g	.
4d	2f	4f	.
4c	.	4e	.
2B-	2g	2d	2r
2A	[2a	2e	[2cc
=43	=43	=43	=43
1d	2a]	2.f	4cc]
.	.	.	4a
.	2f	.	2b-
.	.	4d	.
2c	1r	2e	4cc
.	.	.	4b-
2F	.	4f	4a
.	.	4e	4g
=44	=44	=44	=44
2.B-	0r	4d	2f
.	.	4c	.
.	.	4B-	2.b-
4A	.	4c	.
2G	.	4d	.
.	.	4e	4g
2F	.	[2f	2a
=45	=45	=45	=45
2.c	2r	2f]	1g
.	2.cc	4e	.
4B-	.	4d	.
2A	.	2e	2a
.	4a	.	.
2d	2b-	[2f	2f
=46	=46	=46	=46
1c	2.cc	2f]	1g
.	.	2e	.
.	4b-	.	.
2.f	4a	4f	1f
.	4g	4g	.
.	2f	4a	.
4d	.	4b-	.
=47	=47	=47	=47
2e	2g	1cc	1r
4f	1a	.	.
4e	.	.	.
4d	.	1f	2.ff
4c	.	.	.
2B-	2b-	.	.
.	.	.	4dd
=48	=48	=48	=48
2c	2g	0r	2ee
2F	2a	.	4ff
.	.	.	4ee
2.B-	2f	.	4dd
.	.	.	4cc
.	2g	.	2b-
4G	.	.	.
=49	=49	=49	=49
2A	2e	2r	2cc
2B-	2d	2.g	2.dd
2c	2e	.	.
.	.	4e	4cc
2A	2c	2f	[2cc
=50	=50	=50	=50
1G	1d	2.g	2cc]
.	.	.	2b
.	.	4f	.
2r	2c	4e	1cc
.	.	4d	.
[2c	2g	[2e	.
=51	=51	=51	=51
4c]	2a	4e]	1r
4A	.	4f	.
2B-	2g	2d	.
4c	2e	2c	2r
4B-	.	.	.
4A	[2a	2e	[2cc
4G	.	.	.
=52	=52	=52	=52
2F	2a]	2f	4cc]
.	.	.	4a
2G	2g	2d	2b-
1A	2e	1c	4cc
.	.	.	4b-
.	[2f	.	4a
.	.	.	4g
=53	=53	=53	=53
1B-	4f]	1d	2f
.	4e	.	.
.	1d	.	2g
1A	.	1e	1a
.	2c#	.	.
=54	=54	=54	=54
1d	2d	1f	2r
.	2.f	.	2.a
1r	.	2r	.
.	4d	.	4f
.	2e	[2cc	2g
=55	=55	=55	=55
1r	2f	4cc]	2a
.	.	4a	.
.	2d	2b-	2f
2r	2c	4cc	2g
.	.	4b-	.
[2f	4f	4a	2a
.	4g	4g	.
=56	=56	=56	=56
4f]	4a	2f	1r
4d	4b-	.	.
2e	1cc	2g	.
4f	.	1a	2r
4e	.	.	.
4d	2f	.	[2ff
4c	.	.	.
=57	=57	=57	=57
2B-	1r	2b-	4ff]
.	.	.	4dd
2c	.	2g	2ee
4d	2r	1f	4ff
4c	.	.	4ee
4B-	[2b-	.	4dd
4A	.	.	4cc
=58	=58	=58	=58
2G	4b-]	1r	2b-
.	4g	.	.
2F	2a	.	2cc
1B-	4b-	2r	4dd
.	4a	.	4cc
.	4g	[2g	4b-
.	4f	.	4a
=59	=59	=59	=59
2c	2e	4g]	2g
.	.	4e	.
2A	2c	2f	1cc
1G	1d	2.g	.
.	.	.	2b
.	.	4f	.
=60	=60	=60	=60
0c	2c	4e	[0cc
.	.	4d	.
.	2e	2c	.
.	1g	[1e	.
=61	=61	=61	=61
1A	0a	1e]	1cc_
1F	.	1f	1cc_
=62	=62	=62	=62
0c	0g	0e	0cc]
==	==	==	==
*-	*-	*-	*-
!!!CDT: 1525/^1526/-1594/2/2
!!!OCY: Italia
!!!AGN: Mass (Parody)
!!!AST: renaissance, vocal
!!!ASW: Motet 1569 (Palestrina)
!!!PWK: Masses, Book 8
!!!RNB: Cadence finals: C
!!!YOR: Le Opere Complete, v. 24, p. 117
!!!YOO: Rome, Italy: Fratelli Scalera
!!!END: 1992//
!!!EED: John Miller
!!!YEC: Copyright 2000, John Miller
!!!YEN: United States of America
!!!YEM: Rights to all derivative electronic formats reserved.
!!!YEM: Refer to licensing agreement for further details.
!!!YEM: This file must be accompanied by the licensing agreement.
!!!YEM: A copy of the licensing agreement may be found at http://www.music-cog.ohio-state.edu/HumdrumDatabases/Palestrina/license.txt
!!!EMD: converted to Humdrum by Bret Aarden
